svgs/sharp-regular/truck-field-un.svg

<svg xmlns="http://www.w3.org/2000/svg" viewBox="0 0 640 512"><!--! Font Awesome Pro 6.6.0 by @fontawesome - https://fontawesome.com License - https://fontawesome.com/license (Commercial License) Copyright 2024 Fonticons, Inc. --><path d="M64 80l0 48 0 160 0 48 12.8 0c16.6-28.7 47.6-48 83.2-48s66.6 19.3 83.2 48L352 336l0-112 0-120 0-24L64 80zM16 336l0-48L0 288 0 128l16 0 0-48 0-48 48 0 288 0 48 0 0 48 56 0 15.2 0 6.5 13.8L539 224l69 0 0 112 8 0 24 0 0 48-24 0-8 0-32 0c0 53-43 96-96 96s-96-43-96-96l-32 0-96 0c0 53-43 96-96 96s-96-43-96-96l-40 0-8 0L0 384l0-48 16 0zm96 48a48 48 0 1 0 96 0 48 48 0 1 0 -96 0zM400 224l85.9 0-45.2-96L400 128l0 96zm80 208a48 48 0 1 0 0-96 48 48 0 1 0 0 96zM128 144l0 64c0 8.8 7.2 16 16 16s16-7.2 16-16l0-64 0-16 32 0 0 16 0 64c0 26.5-21.5 48-48 48s-48-21.5-48-48l0-64 0-16 32 0 0 16zm112-16l8 0 9.9 0 4.4 8.8L288 188.2l0-44.2 0-16 32 0 0 16 0 96 0 16-16 0-8 0-9.9 0-4.4-8.8L256 195.8l0 44.2 0 16-32 0 0-16 0-96 0-16 16 0z"/></svg>

<svg xmlns="http://www.w3.org/2000/svg" viewBox="0 0 640 512"><!--! Font Awesome Pro 6.4.2 by @fontawesome - https://fontawesome.com License - https://fontawesome.com/license (Commercial License) Copyright 2023 Fonticons, Inc. --><path d="M64 80v48V288v48H76.8c16.6-28.7 47.6-48 83.2-48s66.6 19.3 83.2 48H352V224 104 80H64zM16 336V288H0V128H16V80 32H64 352h48V80h56 15.2l6.5 13.8L539 224h69V336h8 24v48H616h-8H576c0 53-43 96-96 96s-96-43-96-96H352 256c0 53-43 96-96 96s-96-43-96-96H24 16 0V336H16zm96 48a48 48 0 1 0 96 0 48 48 0 1 0 -96 0zM400 224h85.9l-45.2-96H400v96zm80 208a48 48 0 1 0 0-96 48 48 0 1 0 0 96zM128 144v64c0 8.8 7.2 16 16 16s16-7.2 16-16V144 128h32v16 64c0 26.5-21.5 48-48 48s-48-21.5-48-48V144 128h32v16zm112-16h8 9.9l4.4 8.8L288 188.2V144 128h32v16 96 16H304h-8-9.9l-4.4-8.8L256 195.8V240v16H224V240 144 128h16z"/></svg>
